_inc/systems/logos/auto-strategy.svg

<?xml version="1.0" encoding="utf-8"?>
<svg viewBox="0 0 200 40" xmlns="http://www.w3.org/2000/svg">
  <path d="M 46.538 29.241 L 46.538 29.241 L 48.218 24.304 L 48.218 24.304 C 49.898 24.763 51.438 24.992 52.838 24.992 L 52.838 24.992 L 52.838 24.992 C 54.238 24.992 55.368 24.932 56.228 24.812 L 56.228 24.812 L 56.468 23.316 L 53.978 23.077 L 53.978 23.077 C 52.078 22.898 50.731 22.468 49.938 21.79 L 49.938 21.79 L 49.938 21.79 C 49.151 21.112 48.758 20.154 48.758 18.918 L 48.758 18.918 L 48.758 18.918 C 48.758 18.379 48.818 17.78 48.938 17.122 L 48.938 17.122 L 48.938 17.122 C 49.398 14.568 50.231 12.813 51.438 11.855 L 51.438 11.855 L 51.438 11.855 C 52.651 10.898 54.528 10.419 57.068 10.419 L 57.068 10.419 L 57.068 10.419 C 59.608 10.419 61.848 10.668 63.788 11.167 L 63.788 11.167 L 62.228 15.955 L 62.228 15.955 C 60.488 15.656 59.088 15.506 58.028 15.506 L 58.028 15.506 L 58.028 15.506 C 56.968 15.506 56.068 15.556 55.328 15.656 L 55.328 15.656 L 55.088 17.122 L 57.098 17.331 L 57.098 17.331 C 59.138 17.55 60.588 18.036 61.448 18.788 L 61.448 18.788 L 61.448 18.788 C 62.308 19.533 62.738 20.533 62.738 21.79 L 62.738 21.79 L 62.738 21.79 C 62.738 23.067 62.458 24.383 61.898 25.74 L 61.898 25.74 L 61.898 25.74 C 61.618 26.438 61.311 27.024 60.978 27.496 L 60.978 27.496 L 60.978 27.496 C 60.651 27.962 60.231 28.357 59.718 28.683 L 59.718 28.683 L 59.718 28.683 C 59.211 29.015 58.748 29.264 58.328 29.431 L 58.328 29.431 L 58.328 29.431 C 57.908 29.603 57.378 29.73 56.738 29.81 L 56.738 29.81 L 56.738 29.81 C 55.798 29.949 54.648 30.019 53.288 30.019 L 53.288 30.019 L 53.288 30.019 C 50.808 30.019 48.558 29.759 46.538 29.241 Z M 80.228 10.868 L 79.358 15.656 L 75.218 15.656 L 72.788 29.571 L 67.088 29.571 L 69.518 15.656 L 65.408 15.656 L 66.278 10.868 L 80.228 10.868 Z M 92.888 23.346 L 94.868 29.571 L 88.598 29.571 L 87.218 24.005 L 85.988 24.005 L 85.028 29.571 L 79.328 29.571 L 82.628 10.868 L 91.628 10.868 L 91.628 10.868 C 95.048 10.868 96.758 12.394 96.758 15.446 L 96.758 15.446 L 96.758 15.446 C 96.758 16.703 96.568 17.9 96.188 19.037 L 96.188 19.037 L 96.188 19.037 C 95.488 21.192 94.388 22.628 92.888 23.346 L 92.888 23.346 Z M 88.598 15.656 L 87.458 15.656 L 86.798 19.396 L 88.118 19.396 L 88.118 19.396 C 88.798 19.396 89.311 19.323 89.658 19.177 L 89.658 19.177 L 89.658 19.177 C 90.011 19.024 90.251 18.595 90.378 17.89 L 90.378 17.89 L 90.378 17.89 C 90.511 17.179 90.578 16.743 90.578 16.583 L 90.578 16.583 L 90.578 16.583 C 90.578 16.184 90.425 15.928 90.118 15.816 L 90.118 15.816 L 90.118 15.816 C 89.805 15.709 89.298 15.656 88.598 15.656 L 88.598 15.656 Z M 102.728 26.608 L 101.558 29.571 L 95.558 29.571 L 103.448 10.868 L 112.268 10.868 L 113.588 29.571 L 107.558 29.571 L 107.438 26.608 L 102.728 26.608 Z M 106.988 16.613 L 106.688 16.613 L 104.588 21.85 L 106.988 21.85 L 106.988 16.613 Z M 130.418 10.868 L 129.548 15.656 L 125.408 15.656 L 122.978 29.571 L 117.278 29.571 L 119.708 15.656 L 115.598 15.656 L 116.468 10.868 L 130.418 10.868 Z M 142.928 18.169 L 142.148 22.508 L 136.448 22.508 L 136.058 24.782 L 143.048 24.782 L 142.208 29.571 L 129.518 29.571 L 132.818 10.868 L 145.358 10.868 L 143.798 15.656 L 137.648 15.656 L 137.228 18.169 L 142.928 18.169 Z M 155.618 24.065 L 155.618 24.065 L 155.768 23.256 L 154.328 23.256 L 155.138 18.678 L 162.008 18.678 L 160.238 28.673 L 160.238 28.673 C 157.798 29.571 155.348 30.019 152.888 30.019 L 152.888 30.019 L 152.888 30.019 C 150.428 30.019 148.651 29.53 147.558 28.553 L 147.558 28.553 L 147.558 28.553 C 146.471 27.575 145.928 26.069 145.928 24.034 L 145.928 24.034 L 145.928 24.034 C 145.928 23.176 146.068 21.91 146.348 20.234 L 146.348 20.234 L 146.348 20.234 C 146.948 16.763 148.008 14.259 149.528 12.723 L 149.528 12.723 L 149.528 12.723 C 151.048 11.187 153.568 10.419 157.088 10.419 L 157.088 10.419 L 157.088 10.419 C 157.828 10.419 158.771 10.499 159.918 10.658 L 159.918 10.658 L 159.918 10.658 C 161.071 10.818 161.918 10.998 162.458 11.197 L 162.458 11.197 L 160.808 15.775 L 160.808 15.775 C 159.308 15.496 157.931 15.356 156.678 15.356 L 156.678 15.356 L 156.678 15.356 C 155.431 15.356 154.538 15.456 153.998 15.656 L 153.998 15.656 L 153.998 15.656 C 153.458 15.855 153.138 16.254 153.038 16.853 L 153.038 16.853 L 151.568 25.321 L 153.458 25.321 L 153.458 25.321 C 154.138 25.321 154.641 25.248 154.968 25.102 L 154.968 25.102 L 154.968 25.102 C 155.301 24.949 155.518 24.603 155.618 24.065 Z M 163.658 10.868 L 169.958 10.868 L 170.348 17.451 L 170.558 17.451 L 173.318 10.868 L 179.618 10.868 L 172.058 24.483 L 171.188 29.571 L 165.488 29.571 L 166.358 24.483 L 163.658 10.868 Z" style="white-space: pre; fill: rgb(255, 255, 255);"/>
  <path d="M 30.085 17.791 C 29.303 18.021 28.517 18.226 27.744 18.489 C 27.346 18.625 27.117 18.519 26.916 18.175 C 26.675 17.773 26.38 17.406 26.147 17.004 C 26.012 16.77 25.942 16.497 25.822 16.178 C 25.031 16.438 24.571 15.834 24.086 15.253 C 23.686 14.769 23.258 14.305 22.826 13.851 C 22.741 13.763 22.552 13.701 22.438 13.734 C 21.746 13.932 21.169 13.756 20.788 13.193 C 20.372 12.585 20.411 11.703 20.878 11.143 C 21.283 10.657 21.91 10.498 22.453 10.737 C 23.058 11.004 23.537 11.736 23.336 12.388 C 23.149 12.991 23.419 13.302 23.766 13.668 C 24.178 14.104 24.579 14.549 24.962 15.007 C 25.148 15.226 25.351 15.285 25.632 15.322 C 26.522 15.443 27.175 15.142 27.744 14.44 C 28.152 13.936 28.703 13.547 29.213 13.082 C 28.891 12.721 28.669 12.475 28.454 12.223 C 28.137 11.857 28.144 11.678 28.488 11.323 C 30.314 9.422 33.209 9.557 34.916 11.624 C 35.78 12.669 36.152 13.891 36.174 15.304 C 36.731 15.304 37.278 15.314 37.826 15.296 C 37.92 15.292 38.026 15.187 38.1 15.103 C 38.661 14.488 39.222 13.873 39.757 13.236 C 39.853 13.123 39.859 12.911 39.859 12.742 C 39.859 12.541 39.779 12.336 39.791 12.135 C 39.835 11.198 40.585 10.522 41.425 10.641 C 42.245 10.764 42.817 11.688 42.623 12.582 C 42.419 13.526 41.621 14 40.72 13.734 C 40.611 13.701 40.414 13.761 40.334 13.846 C 39.724 14.499 39.131 15.161 38.547 15.834 C 38.339 16.075 38.116 16.192 37.792 16.178 C 37.272 16.155 36.746 16.17 36.192 16.17 C 36.192 17.403 36.192 18.611 36.192 19.84 C 37.403 19.84 38.605 19.84 39.816 19.84 C 39.845 19.774 39.879 19.711 39.91 19.647 C 40.238 18.944 40.826 18.597 41.476 18.724 C 42.139 18.855 42.646 19.522 42.653 20.275 C 42.66 21.036 42.182 21.712 41.523 21.866 C 40.873 22.016 40.28 21.688 39.922 21.007 C 39.859 20.893 39.71 20.75 39.597 20.746 C 38.475 20.727 37.354 20.735 36.159 20.735 C 36.159 21.364 36.159 21.974 36.159 22.58 C 36.159 23.175 36.159 23.776 36.159 24.434 C 36.695 24.434 37.202 24.46 37.705 24.426 C 38.1 24.397 38.358 24.551 38.605 24.836 C 39.222 25.553 39.864 26.252 40.491 26.95 C 41.38 26.661 41.957 26.812 42.369 27.42 C 42.784 28.033 42.743 28.907 42.274 29.469 C 41.869 29.95 41.242 30.112 40.695 29.869 C 40.094 29.606 39.615 28.871 39.816 28.221 C 40.002 27.617 39.732 27.306 39.386 26.943 C 38.993 26.529 38.597 26.117 38.252 25.666 C 37.979 25.312 37.662 25.24 37.231 25.348 C 37.227 25.744 37.067 26.139 37.596 26.416 C 37.806 26.526 37.945 26.919 37.974 27.195 C 38.033 27.744 37.994 28.305 37.994 28.861 C 37.994 29.249 37.8 29.41 37.421 29.41 C 33.876 29.406 30.331 29.41 26.788 29.406 C 26.325 29.406 26.206 29.275 26.201 28.79 C 26.194 28.293 26.201 27.795 26.201 27.298 C 26.201 26.838 26.401 26.529 26.777 26.238 C 26.974 26.084 26.978 25.681 27.095 25.304 C 26.423 25.304 25.888 25.294 25.355 25.315 C 25.25 25.319 25.126 25.43 25.046 25.521 C 24.483 26.134 23.922 26.754 23.383 27.386 C 23.292 27.491 23.288 27.688 23.285 27.839 C 23.281 27.982 23.351 28.125 23.361 28.268 C 23.437 29.146 22.777 29.95 21.968 29.975 C 21.13 30.002 20.465 29.249 20.494 28.307 C 20.524 27.398 21.261 26.604 22.052 26.82 C 22.676 26.987 22.901 26.675 23.211 26.329 C 23.686 25.792 24.149 25.247 24.655 24.738 C 24.819 24.573 25.096 24.452 25.327 24.445 C 26.187 24.408 27.048 24.426 27.908 24.423 C 27.934 24.423 27.959 24.4 28.01 24.379 C 28.159 23.186 27.787 21.932 28.418 20.735 C 27.678 20.735 27.011 20.735 26.344 20.735 C 25.482 20.735 24.623 20.746 23.762 20.727 C 23.419 20.72 23.19 20.757 23.022 21.141 C 22.803 21.639 22.358 21.91 21.789 21.895 C 21.242 21.881 20.855 21.595 20.602 21.127 C 20.33 20.638 20.312 20.113 20.535 19.606 C 20.768 19.072 21.173 18.732 21.775 18.706 C 22.379 18.679 22.826 18.983 23.062 19.518 C 23.197 19.821 23.369 19.873 23.656 19.873 C 25.319 19.862 26.982 19.84 28.644 19.88 C 29.254 19.895 29.633 19.627 29.855 19.147 C 30.036 18.753 30.102 18.299 30.219 17.87 C 30.176 17.846 30.131 17.82 30.085 17.791 Z M 26.81 16.55 C 26.992 16.825 27.175 17.067 27.324 17.334 C 27.463 17.579 27.619 17.636 27.893 17.547 C 28.656 17.298 29.424 17.07 30.198 16.862 C 30.409 16.807 30.662 16.804 30.872 16.857 C 32.269 17.224 32.669 16.96 32.866 15.507 C 32.871 15.479 32.863 15.44 32.878 15.423 C 33.005 15.304 33.14 15.092 33.267 15.095 C 33.395 15.099 33.593 15.304 33.626 15.451 C 33.859 16.529 33.028 17.737 31.944 17.885 C 31.626 17.93 31.291 17.849 30.916 17.825 C 31.018 19.104 30.413 20.03 29.436 20.813 C 29.148 21.043 28.922 21.492 28.884 21.866 C 28.806 22.7 28.859 23.55 28.859 24.4 C 31.032 24.4 33.191 24.4 35.357 24.4 C 35.357 21.124 35.431 17.875 35.328 14.634 C 35.273 12.831 34.015 11.4 32.468 10.968 C 31.313 10.641 29.848 11.031 29.22 11.839 C 29.391 12.034 29.567 12.231 29.741 12.425 C 30.205 12.939 30.2 13.053 29.719 13.55 C 28.75 14.546 27.787 15.541 26.81 16.55 Z M 27.797 26.191 C 27.978 26.191 28.134 26.191 28.291 26.191 C 29.836 26.191 31.382 26.191 32.928 26.191 C 33.045 26.191 33.195 26.149 33.272 26.205 C 33.417 26.314 33.614 26.479 33.618 26.622 C 33.618 26.764 33.425 26.934 33.282 27.046 C 33.209 27.104 33.057 27.059 32.94 27.059 C 31.102 27.059 29.265 27.057 27.426 27.072 C 27.281 27.072 27.021 27.2 27.014 27.288 C 26.968 27.688 26.997 28.092 26.997 28.513 C 30.427 28.513 33.804 28.513 37.224 28.513 C 37.224 28.14 37.205 27.792 37.227 27.444 C 37.245 27.124 37.107 27.046 36.815 27.053 C 36.29 27.072 35.765 27.053 35.24 27.059 C 34.934 27.064 34.712 26.958 34.712 26.625 C 34.712 26.293 34.93 26.183 35.24 26.186 C 35.626 26.194 36.016 26.186 36.396 26.186 C 36.502 25.304 36.502 25.304 35.689 25.304 C 33.223 25.304 30.759 25.315 28.298 25.294 C 27.856 25.29 27.722 25.44 27.783 25.845 C 27.791 25.944 27.791 26.045 27.797 26.191 Z M 41.872 12.264 C 41.891 11.861 41.617 11.521 41.261 11.499 C 40.902 11.478 40.585 11.791 40.568 12.191 C 40.549 12.579 40.833 12.932 41.187 12.955 C 41.548 12.974 41.858 12.663 41.872 12.264 Z M 41.872 20.319 C 41.879 19.912 41.595 19.591 41.234 19.583 C 40.873 19.576 40.57 19.897 40.568 20.296 C 40.56 20.692 40.851 21.028 41.21 21.032 C 41.577 21.036 41.869 20.725 41.872 20.319 Z M 21.931 11.495 C 21.57 11.495 21.283 11.821 21.283 12.223 C 21.283 12.627 21.574 12.952 21.935 12.952 C 22.289 12.952 22.592 12.616 22.592 12.223 C 22.592 11.833 22.285 11.495 21.931 11.495 Z M 41.205 29.113 C 41.566 29.123 41.865 28.809 41.877 28.403 C 41.883 28.001 41.606 27.672 41.246 27.66 C 40.884 27.65 40.583 27.969 40.57 28.366 C 40.555 28.755 40.849 29.099 41.205 29.113 Z M 22.486 20.301 C 22.482 19.902 22.186 19.578 21.826 19.578 C 21.466 19.578 21.173 19.91 21.177 20.308 C 21.181 20.709 21.476 21.032 21.837 21.028 C 22.194 21.025 22.489 20.695 22.486 20.301 Z M 21.917 27.66 C 21.556 27.672 21.275 28.001 21.283 28.403 C 21.29 28.804 21.593 29.123 21.954 29.113 C 22.308 29.102 22.602 28.757 22.592 28.366 C 22.581 27.969 22.274 27.65 21.917 27.66 Z" style="fill: rgb(204, 204, 204);"/>
</svg>

<svg xmlns="http://www.w3.org/2000/svg" viewBox="0 0 200 40"><path d="m46.54 29.24 1.68-4.94q2.52.7 4.62.7t3.39-.19l.24-1.5-2.5-.23q-2.85-.27-4.03-1.29a3.6 3.6 0 0 1-1.18-2.87q0-.81.18-1.8.7-3.82 2.5-5.26 1.82-1.44 5.63-1.44t6.72.75l-1.56 4.79q-2.61-.45-4.2-.45t-2.7.15l-.24 1.46 2 .21q3.07.32 4.36 1.46a3.8 3.8 0 0 1 1.29 3q0 1.92-.84 3.95-.42 1.05-.92 1.76a4 4 0 0 1-1.26 1.18q-.75.5-1.4.75-.62.26-1.58.38-1.42.2-3.45.2-3.72 0-6.75-.77m33.69-18.37-.87 4.79h-4.14l-2.43 13.91h-5.7l2.43-13.91H65.4l.87-4.8zm12.66 12.48 1.98 6.22H88.6L87.22 24h-1.23l-.96 5.57h-5.7l3.3-18.7h9q5.13 0 5.13 4.58 0 1.88-.57 3.59-1.05 3.23-3.3 4.3m-4.3-7.7h-1.13l-.66 3.75h1.32q1.03 0 1.54-.22.53-.24.72-1.29.2-1.07.2-1.3 0-.6-.46-.77-.47-.16-1.52-.16m14.14 10.96-1.17 2.96h-6l7.89-18.7h8.82l1.32 18.7h-6.03l-.12-2.96zm4.26-10h-.3l-2.1 5.24h2.4zm23.43-5.74-.87 4.79h-4.14l-2.43 13.91h-5.7l2.43-13.91h-4.11l.87-4.8zm12.5 7.3-.77 4.34h-5.7l-.4 2.27h7l-.84 4.8h-12.7l3.3-18.71h12.55l-1.56 4.79h-6.15l-.42 2.5zm12.7 5.9.15-.81h-1.44l.8-4.58h6.88l-1.77 10q-3.67 1.34-7.35 1.34-3.7 0-5.33-1.47t-1.63-4.52q0-1.28.42-3.8.9-5.2 3.18-7.5 2.28-2.31 7.56-2.31 1.1 0 2.83.24t2.54.54l-1.65 4.58q-2.25-.42-4.13-.42t-2.68.3-.96 1.2l-1.47 8.46h1.89q1.02 0 1.5-.22.51-.23.66-1.04m8.04-13.2h6.3l.39 6.58h.2l2.77-6.58h6.3l-7.56 13.61-.87 5.1h-5.7l.87-5.1z" style="white-space:pre;fill:#fff"/><path d="M30.09 17.8q-1.18.32-2.35.69c-.4.14-.62.03-.82-.31-.25-.4-.54-.77-.77-1.18-.14-.23-.2-.5-.33-.82-.79.26-1.25-.35-1.73-.93q-.6-.72-1.26-1.4a.5.5 0 0 0-.4-.12c-.68.2-1.26.03-1.64-.54-.42-.6-.38-1.49.09-2.05.4-.48 1.03-.64 1.57-.4.6.26 1.09 1 .89 1.65-.2.6.08.91.43 1.28q.6.65 1.2 1.34c.18.22.38.28.66.31.9.12 1.55-.18 2.11-.88.41-.5.96-.9 1.47-1.36l-.76-.86c-.31-.36-.3-.54.04-.9a4.22 4.22 0 0 1 6.43.3 5.7 5.7 0 0 1 1.25 3.68h1.66c.09 0 .2-.11.27-.2q.85-.92 1.66-1.86c.1-.12.1-.33.1-.5 0-.2-.08-.4-.07-.6.05-.94.8-1.62 1.63-1.5s1.4 1.05 1.2 1.94c-.2.95-1 1.42-1.9 1.15-.1-.03-.3.03-.39.12q-.9.98-1.78 1.98a.9.9 0 0 1-.76.35q-.77-.02-1.6-.01v3.67h3.63l.09-.2c.33-.7.92-1.04 1.57-.92.66.14 1.17.8 1.17 1.55.01.77-.47 1.44-1.13 1.6-.65.15-1.24-.18-1.6-.86-.06-.12-.21-.26-.32-.26q-1.67-.02-3.44-.02v3.7c.54 0 1.04.03 1.55 0 .39-.03.65.12.9.4q.93 1.07 1.88 2.12c.89-.29 1.47-.14 1.88.47s.37 1.49-.1 2.05c-.4.48-1.03.64-1.58.4-.6-.26-1.07-1-.87-1.65.18-.6-.09-.91-.43-1.28q-.62-.6-1.14-1.27c-.27-.36-.59-.43-1.02-.32 0 .4-.16.79.37 1.07.2.1.34.5.37.77.06.55.02 1.11.02 1.67q0 .57-.57.55H26.8c-.46 0-.58-.14-.59-.62v-1.5c0-.45.2-.76.58-1.05.2-.16.2-.56.31-.94-.67 0-1.2 0-1.73.02-.11 0-.23.11-.31.2q-.86.91-1.67 1.87c-.09.1-.1.3-.1.45 0 .14.07.29.08.43.08.88-.58 1.68-1.4 1.7-.83.03-1.5-.72-1.47-1.66.03-.91.77-1.7 1.56-1.49.63.17.85-.14 1.16-.5q.7-.8 1.45-1.58c.16-.17.44-.29.67-.3l2.58-.02.1-.04c.15-1.2-.22-2.45.4-3.64h-2.07l-2.58-.01c-.34-.01-.57.03-.74.41-.22.5-.66.77-1.23.75-.55 0-.93-.3-1.19-.76a1.7 1.7 0 0 1-.07-1.52c.24-.54.64-.88 1.24-.9s1.06.27 1.3.8c.13.31.3.36.59.36 1.66 0 3.32-.03 4.98.01q.9.01 1.21-.73c.19-.4.25-.85.37-1.28zm-3.28-1.25q.29.4.51.78c.14.25.3.3.57.22q1.15-.37 2.3-.69.35-.08.68 0c1.4.36 1.8.1 2-1.35v-.09c.14-.12.27-.33.4-.32.13 0 .32.2.36.35a2.1 2.1 0 0 1-1.69 2.44c-.31.04-.65-.04-1.02-.07.1 1.28-.5 2.21-1.48 3-.3.22-.52.67-.56 1.05-.07.83-.02 1.68-.02 2.53h6.5c0-3.28.07-6.52-.03-9.77a3.9 3.9 0 0 0-2.86-3.66c-1.16-.33-2.62.06-3.25.87l.52.59c.46.5.46.62-.02 1.12zm.99 9.64h5.13c.12 0 .27-.04.34.01.15.11.34.28.35.42s-.2.31-.34.43c-.07.05-.22 0-.34 0q-2.76 0-5.51.02c-.15 0-.4.13-.42.22-.04.4-.01.8-.01 1.22h10.22q-.02-.55 0-1.07c.02-.32-.11-.4-.4-.39q-.79.02-1.58 0c-.3.01-.53-.1-.53-.43s.22-.44.53-.43h1.16c.1-.89.1-.89-.71-.89h-7.4c-.43-.01-.57.14-.5.54zm14.07-13.93c.02-.4-.25-.74-.6-.76-.37-.02-.69.3-.7.7-.02.38.26.73.62.76.36.01.67-.3.68-.7m0 8.06c0-.4-.27-.73-.64-.74-.36 0-.66.32-.66.72-.01.4.28.73.64.73.37 0 .66-.3.66-.71m-19.94-8.83c-.36 0-.65.33-.65.73s.3.73.65.73.66-.33.66-.73-.3-.73-.66-.73M41.2 29.12c.37.01.66-.3.68-.7 0-.4-.27-.74-.63-.75-.37-.01-.67.3-.68.7s.28.74.63.75m-18.71-8.8c0-.4-.3-.73-.66-.73s-.66.33-.65.73c0 .4.3.72.66.72.35 0 .65-.34.65-.73m-.57 7.35c-.36.01-.65.34-.64.74s.31.72.67.71c.36 0 .65-.35.64-.74 0-.4-.32-.72-.67-.71" style="fill:#ccc"/></svg>
